X:78
T:Swiss. JJo3.078, The
Z:vmp.Ruairidh Greig 2014 www.village-music-project.org.uk
B:J.Johnson Choice Collection Vol 3 1744
M:C|
L:1/4
Q:1/4=160
N:Final repeat sign added
K:D
A|ddgf|e2fe/d/|e2A/B/c/A/|d/c/d/e/dA|
ddgf|e2fe/d/|e2A/B/c/A/|d3:|
|:e|e2Ae|e2Ae|"tr"f>efg|e3A|
ddgf|e2fe/d/|e2A/B/c/A/|d3:|

